package/converter/svg/duotone/game-board.svg

<svg xmlns="http://www.w3.org/2000/svg" viewBox="0 0 448 512"><!--! Font Awesome Pro 6.6.0 by @fontawesome - https://fontawesome.com License - https://fontawesome.com/license (Commercial License) Copyright 2024 Fonticons, Inc. --><defs><style>.fa-secondary{opacity:.4}</style></defs><path class="fa-secondary" d="M0 96L0 416c0 35.3 28.7 64 64 64l320 0c35.3 0 64-28.7 64-64l0-320c0-35.3-28.7-64-64-64L64 32C28.7 32 0 60.7 0 96zm64 0l80 0 80 0 80 0 80 0 0 80 0 80 0 80 0 80-80 0-80 0-80 0-80 0 0-80 0-80 0-80 0-80z"/><path class="fa-primary" d="M64 256l0 80h80V256H64zM384 416l0-80H304v80h80zm-240 0h80V336H144v80zM64 96l0 80h80V96H64zm160 80H144v80h80V176zm0 80v80h80V256H224zm160 0V176H304v80h80zM304 96H224v80h80V96z"/></svg>

<svg xmlns="http://www.w3.org/2000/svg" viewBox="0 0 448 512"><!-- Font Awesome Pro 6.0.0-alpha2 by @fontawesome - https://fontawesome.com License - https://fontawesome.com/license (Commercial License) --><defs><style>.fa-secondary{opacity:.4}</style></defs><path d="M384 32H64C28.654 32 0 60.652 0 96V416C0 451.346 28.654 480 64 480H384C419.346 480 448 451.346 448 416V96C448 60.652 419.346 32 384 32ZM384 416H64V96H384V416Z" class="fa-secondary"/><path d="M64 256V336H144V256H64ZM384 416V336H304V416H384ZM144 416H224V336H144V416ZM64 96V176H144V96H64ZM224 176H144V256H224V176ZM224 256V336H304V256H224ZM384 256V176H304V256H384ZM304 96H224V176H304V96Z" class="fa-primary"/></svg>
